assets/hourglass-bottom.svg

<svg xmlns="http://www.w3.org/2000/svg" fill="none" viewBox="0 0 24 28">
  <path fill="#2A2238" d="M0 1C0 .734784.105357.48043.292893.292893.48043.105357.734784 0 1 0h22c.2652 0 .5196.105357.7071.292893C23.8946.48043 24 .734784 24 1c0 .26522-.1054.51957-.2929.70711C23.5196 1.89464 23.2652 2 23 2h-2v2c.0004 1.69806-.4796 3.3616-1.3845 4.79844-.9049 1.43686-2.1979 2.58836-3.7295 3.32156-.58.278-.886.754-.886 1.18v1.4c0 .426.308.902.886 1.18 1.5316.7332 2.8246 1.8847 3.7295 3.3216C20.5204 20.6384 21.0004 22.3019 21 24v2h2c.2652 0 .5196.1054.7071.2929S24 26.7348 24 27c0 .2652-.1054.5196-.2929.7071S23.2652 28 23 28H1c-.265216 0-.51957-.1054-.707107-.2929C.105357 27.5196 0 27.2652 0 27c0-.2652.105357-.5196.292893-.7071C.48043 26.1054.734784 26 1 26h2v-2c-.00041-1.6981.47957-3.3616 1.3845-4.7984.90493-1.4369 2.19788-2.5884 3.7295-3.3216.58-.278.886-.754.886-1.18v-1.4c0-.426-.308-.902-.886-1.18-1.53162-.7332-2.82457-1.8847-3.7295-3.32156C3.47957 7.3616 2.99959 5.69806 3 4V2H1c-.265216 0-.51957-.10536-.707107-.29289C.105357 1.51957 0 1.26522 0 1Zm5 1v2c-.00036 1.32084.37298 2.61483 1.0769 3.73247.70392 1.11763 1.70969 2.0133 2.9011 2.58353 1.066.512 2.022 1.582 2.022 2.982v1.404s.36.298 1 .298 1-.3 1-.3v-1.4c0-1.402.956-2.472 2.022-2.984 1.1914-.57023 2.1972-1.4659 2.9011-2.58353C18.627 6.61483 19.0004 5.32084 19 4V2H5Z"/>
</svg>

<svg width="24" height="28" viewBox="0 0 24 28" fill="none" xmlns="http://www.w3.org/2000/svg">
<path d="M0 1C0 0.734784 0.105357 0.48043 0.292893 0.292893C0.48043 0.105357 0.734784 0 1 0H23C23.2652 0 23.5196 0.105357 23.7071 0.292893C23.8946 0.48043 24 0.734784 24 1C24 1.26522 23.8946 1.51957 23.7071 1.70711C23.5196 1.89464 23.2652 2 23 2H21V4C21.0004 5.69806 20.5204 7.3616 19.6155 8.79844C18.7106 10.2353 17.4176 11.3868 15.886 12.12C15.306 12.398 15 12.874 15 13.3V14.7C15 15.126 15.308 15.602 15.886 15.88C17.4176 16.6132 18.7106 17.7647 19.6155 19.2016C20.5204 20.6384 21.0004 22.3019 21 24V26H23C23.2652 26 23.5196 26.1054 23.7071 26.2929C23.8946 26.4804 24 26.7348 24 27C24 27.2652 23.8946 27.5196 23.7071 27.7071C23.5196 27.8946 23.2652 28 23 28H1C0.734784 28 0.48043 27.8946 0.292893 27.7071C0.105357 27.5196 0 27.2652 0 27C0 26.7348 0.105357 26.4804 0.292893 26.2929C0.48043 26.1054 0.734784 26 1 26H3V24C2.99959 22.3019 3.47957 20.6384 4.3845 19.2016C5.28943 17.7647 6.58238 16.6132 8.114 15.88C8.694 15.602 9 15.126 9 14.7V13.3C9 12.874 8.692 12.398 8.114 12.12C6.58238 11.3868 5.28943 10.2353 4.3845 8.79844C3.47957 7.3616 2.99959 5.69806 3 4V2H1C0.734784 2 0.48043 1.89464 0.292893 1.70711C0.105357 1.51957 0 1.26522 0 1ZM5 2V4C4.99964 5.32084 5.37298 6.61483 6.0769 7.73247C6.78082 8.8501 7.78659 9.74577 8.978 10.316C10.044 10.828 11 11.898 11 13.298V14.702C11 14.702 11.36 15 12 15C12.64 15 13 14.7 13 14.7V13.3C13 11.898 13.956 10.828 15.022 10.316C16.2134 9.74577 17.2192 8.8501 17.9231 7.73247C18.627 6.61483 19.0004 5.32084 19 4V2H5Z" fill="#2A2238"/>
</svg>
